TV/Source/Bravo - Dark.svg

<svg height="806.37042" viewBox="0 0 1000 755.97229" width="1066.6666" xmlns="http://www.w3.org/2000/svg"><path d="m .53320312.53320312v805.30468688l222.08984688-210.16601h843.50975v-595.13867688zm134.26562688 139.60741688v107.625c0 .00005 15.58762-25.14062 54.21289-25.14062 49.12434 0 86.8789 38.47954 86.8789 91.375 0 48.36838-33.41025 91.07617-86.94531 91.07617-38.94527 0-54.14648-25.17578-54.14648-25.17578v20.7793h-38.36133v-225.375zm255.21094 82.41211c16.72659 0 28.84375 4.62305 28.84375 4.62305l-8.63672 37.8457s-12.87748-6.16796-28.52539-6.16796c-29.76385 0-41.76368 21.27664-41.76368 45.375v96.4375h-38.36328v-173.69336h37.83008v19.17578s12.71831-23.59571 50.61524-23.59571zm505.06054.00586c48.97713 0 92.90821 35.12064 92.90821 91.3086 0 50.76788-37.8733 91.24219-93.33985 91.24219-57.57409-.00001-93.43945-42.9667-93.43945-91.3086 0-48.77442 35.64957-91.24219 93.87109-91.24219zm-388.87695.06641c38.62527 0 54.21289 25.14065 54.21289 25.14062v-20.79296h38.36133v173.70703h-38.36133v-20.7793s-15.20122 25.17578-54.14648 25.17578c-53.53506 0-86.94532-42.70779-86.94532-91.07617 0-52.89546 37.75457-91.375 86.87891-91.375zm110.91211 4.34766h41.44141l51.25 134.09961 51.0957-134.09961h40.375l-69.40235 173.69336h-45.08593zm277.43359 31.2832c-32.39209 0-54.3457 25.5537-54.3457 55.54492 0 31.98514 22.69185 55.64453 54.44531 55.64453 29.45165 0 54.51172-22.3943 54.51172-55.44531 0-34.73679-25.37489-55.74414-54.61133-55.74414zm-710.15625.0332c-31.43028 0-52.11523 24.12744-52.11523 55.47852 0 35.14281 23.92893 55.50976 52.11523 55.50976 30.71522 0 52.38086-22.74192 52.38086-55.61132 0-33.38306-22.14617-55.37696-52.38086-55.37696zm326.43946 0c-30.23468 0-52.38086 21.9939-52.38086 55.37696 0 32.8694 21.66564 55.61132 52.38086 55.61132 28.1863 0 52.11523-20.36695 52.11523-55.50976 0-31.35108-20.68495-55.47852-52.11523-55.47852z" fill="#080006" transform="scale(.93750003)"/></svg>

<?xml version="1.0" encoding="UTF-8" standalone="no"?>
<!-- Created with Inkscape (http://www.inkscape.org/) -->

<svg
   xmlns:dc="http://purl.org/dc/elements/1.1/"
   xmlns:cc="http://creativecommons.org/ns#"
   xmlns:rdf="http://www.w3.org/1999/02/22-rdf-syntax-ns#"
   xmlns:svg="http://www.w3.org/2000/svg"
   xmlns="http://www.w3.org/2000/svg"
   xmlns:sodipodi="http://sodipodi.sourceforge.net/DTD/sodipodi-0.dtd"
   xmlns:inkscape="http://www.inkscape.org/namespaces/inkscape"
   width="1066.6666"
   height="806.37042"
   id="svg2"
   version="1.1"
   inkscape:version="0.92.0 r15299"
   sodipodi:docname="Bravo - Dark.svg"
   viewBox="0 0 1000 755.97229">
  <defs
     id="defs4" />
  <sodipodi:namedview
     id="base"
     pagecolor="#ffffff"
     bordercolor="#666666"
     borderopacity="1.0"
     inkscape:pageopacity="0.0"
     inkscape:pageshadow="2"
     inkscape:zoom="0.80433396"
     inkscape:cx="308.13702"
     inkscape:cy="414.57532"
     inkscape:document-units="px"
     inkscape:current-layer="layer1"
     showgrid="false"
     fit-margin-left="0.5"
     fit-margin-bottom="0.5"
     fit-margin-top="0.5"
     fit-margin-right="0.5"
     inkscape:window-width="1920"
     inkscape:window-height="1017"
     inkscape:window-x="-8"
     inkscape:window-y="-8"
     inkscape:window-maximized="1">
    <inkscape:grid
       type="xygrid"
       id="grid2996"
       empspacing="5"
       visible="true"
       enabled="true"
       snapvisiblegridlinesonly="true"
       originx="-59.500002"
       originy="-83.771965"
       spacingx="1"
       spacingy="1" />
  </sodipodi:namedview>
  <metadata
     id="metadata7">
    <rdf:RDF>
      <cc:Work
         rdf:about="">
        <dc:format>image/svg+xml</dc:format>
        <dc:type
           rdf:resource="http://purl.org/dc/dcmitype/StillImage" />
        <dc:title />
      </cc:Work>
    </rdf:RDF>
  </metadata>
  <g
     inkscape:label="Layer 1"
     inkscape:groupmode="layer"
     id="layer1"
     transform="translate(-59.5,-212.61791)">
    <path
       style="fill:#080006;fill-opacity:1;stroke:none;stroke-width:1.0666666"
       d="M 0.53320312 0.53320312 L 0.53320312 805.83789 L 222.62305 595.67188 L 1066.1328 595.67188 L 1066.1328 0.53320312 L 0.53320312 0.53320312 z M 134.79883 140.14062 L 134.79883 247.76562 C 134.79883 247.76567 150.38645 222.625 189.01172 222.625 C 238.13606 222.625 275.89062 261.10454 275.89062 314 C 275.89062 362.36838 242.48037 405.07617 188.94531 405.07617 C 150.00004 405.07617 134.79883 379.90039 134.79883 379.90039 L 134.79883 400.67969 L 96.4375 400.67969 L 96.4375 175.30469 L 134.79883 140.14062 z M 390.00977 222.55273 C 406.73636 222.55273 418.85352 227.17578 418.85352 227.17578 L 410.2168 265.02148 C 410.2168 265.02148 397.33932 258.85352 381.69141 258.85352 C 351.92756 258.85352 339.92773 280.13016 339.92773 304.22852 L 339.92773 400.66602 L 301.56445 400.66602 L 301.56445 226.97266 L 339.39453 226.97266 L 339.39453 246.14844 C 339.39453 246.14844 352.11284 222.55273 390.00977 222.55273 z M 895.07031 222.55859 C 944.04744 222.55859 987.97852 257.67923 987.97852 313.86719 C 987.97852 364.63507 950.10522 405.10938 894.63867 405.10938 C 837.06458 405.10937 801.19922 362.14268 801.19922 313.80078 C 801.19922 265.02636 836.84879 222.55859 895.07031 222.55859 z M 506.19336 222.625 C 544.81863 222.625 560.40625 247.76565 560.40625 247.76562 L 560.40625 226.97266 L 598.76758 226.97266 L 598.76758 400.67969 L 560.40625 400.67969 L 560.40625 379.90039 C 560.40625 379.90039 545.20503 405.07617 506.25977 405.07617 C 452.72471 405.07617 419.31445 362.36838 419.31445 314 C 419.31445 261.10454 457.06902 222.625 506.19336 222.625 z M 617.10547 226.97266 L 658.54688 226.97266 L 709.79688 361.07227 L 760.89258 226.97266 L 801.26758 226.97266 L 731.86523 400.66602 L 686.7793 400.66602 L 617.10547 226.97266 z M 894.53906 258.25586 C 862.14697 258.25586 840.19336 283.80956 840.19336 313.80078 C 840.19336 345.78592 862.88521 369.44531 894.63867 369.44531 C 924.09032 369.44531 949.15039 347.05101 949.15039 314 C 949.15039 279.26321 923.7755 258.25586 894.53906 258.25586 z M 184.38281 258.28906 C 152.95253 258.28906 132.26758 282.4165 132.26758 313.76758 C 132.26758 348.91039 156.19651 369.27734 184.38281 369.27734 C 215.09803 369.27734 236.76367 346.53542 236.76367 313.66602 C 236.76367 280.28296 214.6175 258.28906 184.38281 258.28906 z M 510.82227 258.28906 C 480.58759 258.28906 458.44141 280.28296 458.44141 313.66602 C 458.44141 346.53542 480.10705 369.27734 510.82227 369.27734 C 539.00857 369.27734 562.9375 348.91039 562.9375 313.76758 C 562.9375 282.4165 542.25255 258.28906 510.82227 258.28906 z "
       transform="matrix(0.93750003,0,0,0.93750003,59.5,212.61791)"
       id="path3018" />
  </g>
</svg>
